!!!OTL: Und wenn der liebe Gott wollte (Band 1), S. 149
!!!id: P0824
**kern
*clefG2
*k[b-e-]
*g:
{4d
=1
4.g
8a
8b-
8b-
4a
=2
8g
8b-
4a}
4r
=3
{4d
=4
4.g
8a
4b-
4a
=5
8g
8b-
4a}
4r
=6
{8g
8a
=7
4b-
8dd
8cc
4.dd
8ee-
=8
8dd
8cc
8b-
8cc
8dd
8b-
8a}
=9
{8cc
=10
4b-
8a
8a
4g
4a
=11
4b-
4a
4g
8f#
8f#
=12
2g}
4r
=13
{8g
8a
=14
4b-
8dd
8cc
4.dd
8ee-
=15
8dd
8cc
8b-
8cc
8dd
8b-
8a}
=16
{8cc
=17
4b-
8a
8a
4g
4a
=18
4b-
4a
4g
8f#
8f#
=19
2g}
4r
==
*-
!!!minrhy: 8
!!!meters: 4/4 ]  ZZ[6
!!!cut: Und wenn der liebe Gott wollte (Band 1), S. 149
!!!reg: Lothringen
!!!trd: PINCK, Louis: Verklingende Weisen, Bd 1, Metz 1928
!!!rhy1: X_  X_.XXXX_  XXX_0_
!!!rhy2: X_  X_.XX_X_  XXX_0_
!!!key: P0824  08  G 4/4 ]  ZZ[6
!!!mod: HEPTATONIK HARMONISCH MOLL]  AMBITUS[9b
!!!kad: 222121
!!!akz: 13b1_13b1_3b555_3b13b11_3b555_3b13b11_
!!!fot: 'a__av_b__c__b__c__
!!!for: 'a__b__c__d__c__d__
!!!fok: '/__/__Ma_\__Ma_\__
!! PHRAS[AUFTAKTIG]
!!!fkt: Liebe, Trennung / Abschied, Krieg, Tod
!! LOTH VKL
!! PR[25] 2K[9] 2G[12] 3K[4] 3G[3] 4A[4] 4Ü[0] 5A[0] 6K[1] 6G[0]
!! 7K[0] 7G[0] 8A[0] MEHR[0] SI[34] ABS[67] SR[21] SP[13]
!! ST[16] 2k[15] 2g[21] 3k[3] 3g[0] 4d[0] 4ü[0] 5d[0] 6k[0] 6g[1]
!! 7k[0] 7g[0] 8d[0] mehr[0] si[40] dm[-6] sr[36] sp[4]
!! 1F[3] 2F[74] 3F[18] 4F[6] LF[0] 2P[0] 3P[0] 4P[0] TRI[0] DF[4] AB[72]
!! TF[0] U3K[0] U3[0] U4[0] U4Ü[0] U5[3] U6K[0] U6[0] U7K[0] U7[3]
!! N1[16] N2K[0] N2[7] N3K[0] N3[22] N4[19] N4Ü[0] N5[22] N6K[0] N6[7]
!!!n7k: 0] N7[0] O1[0] O2K[0] O2[0] O3K[0] O3[0] HÖ[0
